src/lib/packages/icons/src/assets/filled/line-down-circle.svg

<svg width="24" height="24" viewBox="0 0 24 24" fill="none" xmlns="http://www.w3.org/2000/svg">
<path d="M12 2C6.477 2 2 6.477 2 12C2 17.523 6.477 22 12 22C17.523 22 22 17.523 22 12C22 6.477 17.523 2 12 2ZM17.75 14.304C17.75 14.402 17.73 14.4991 17.692 14.5911C17.616 14.7741 17.47 14.9201 17.287 14.9971C17.195 15.0351 17.098 15.0549 17 15.0549H14.12C13.706 15.0549 13.37 14.7189 13.37 14.3049C13.37 13.8909 13.706 13.5549 14.12 13.5549H15.19L12.922 11.287C12.877 11.243 12.805 11.244 12.76 11.287L11.286 12.761C10.657 13.391 9.63199 13.39 9.00299 12.761L6.46899 10.2271C6.17599 9.93405 6.17599 9.45902 6.46899 9.16602C6.76199 8.87302 7.237 8.87302 7.53 9.16602L10.064 11.7C10.102 11.738 10.188 11.739 10.226 11.7L11.7 10.226C12.31 9.61695 13.374 9.61795 13.983 10.226L16.251 12.4939V11.424C16.251 11.01 16.587 10.674 17.001 10.674C17.415 10.674 17.751 11.01 17.751 11.424V14.304H17.75Z" fill="currentColor"/>
</svg>

<svg xmlns="http://www.w3.org/2000/svg" width="24" height="24" fill="none"><path fill="currentColor" d="M12 2C6.477 2 2 6.477 2 12s4.477 10 10 10 10-4.477 10-10S17.523 2 12 2Zm5.75 12.304a.751.751 0 0 1-.75.75h-2.88a.75.75 0 0 1 0-1.5h1.07l-2.268-2.267a.117.117 0 0 0-.162 0l-1.474 1.474a1.616 1.616 0 0 1-2.283 0l-2.534-2.534A.75.75 0 0 1 7.53 9.166l2.534 2.534c.038.038.124.039.162 0l1.474-1.474c.61-.61 1.674-.608 2.283 0l2.268 2.268v-1.07a.75.75 0 0 1 1.5 0v2.88h-.001Z"/></svg>
